src/assets/images/illustrations/not-found.svg

<svg width="696" height="418" viewBox="0 0 696 418" fill="none" xmlns="http://www.w3.org/2000/svg">
<path d="M113.352 273.638H5.22325L0 225.947L98.9876 89.3909H176.736V221.371H203.846V273.638H176.736V313.494H113.363V273.638H113.352ZM113.352 221.371V154.081L65.0018 221.371H113.352Z" fill="#2D2D2D"/>
<path d="M164.544 417H528.624" stroke="#2D2D2D" stroke-width="1.13" stroke-miterlimit="10"/>
<path d="M604.88 273.638H496.752L491.528 225.947L590.516 89.3909H668.264V221.371H695.374V273.638H668.264V313.494H604.891V273.638H604.88ZM604.88 221.371V154.081L556.53 221.371H604.88Z" fill="#2D2D2D"/>
<path d="M430.746 284.153C477.282 237.616 477.282 162.166 430.746 115.629C384.209 69.0926 308.759 69.0926 262.222 115.629C215.686 162.166 215.686 237.616 262.222 284.153C308.759 330.689 384.209 330.689 430.746 284.153Z" fill="#2D2D2D"/>
<path d="M478.875 199.888C478.875 273.025 419.581 332.319 346.444 332.319" stroke="#2D2D2D" stroke-width="1.17" stroke-miterlimit="10"/>
<path d="M470.069 65.0889C469.815 70.2313 465.435 74.1949 460.293 73.9407C455.151 73.6865 451.187 69.3068 451.441 64.1644C451.695 59.0221 456.075 55.0584 461.218 55.3126C466.36 55.5669 470.324 59.9465 470.069 65.0889Z" stroke="#2D2D2D" stroke-width="1.17" stroke-miterlimit="10"/>
<path d="M322.305 51.7995C322.674 53.0245 340.182 76.8065 339.823 76.194L352.2 61.6451L331.503 45.594L322.305 51.8111V51.7995Z" fill="#EF9E7B"/>
<path d="M334.52 44.6927L332.127 65.7591L321.843 51.2796L334.52 44.6927Z" fill="#D67F61"/>
<path d="M324.037 58.7793C334.344 58.7793 342.7 50.4237 342.7 40.1166C342.7 29.8095 334.344 21.4539 324.037 21.4539C313.73 21.4539 305.375 29.8095 305.375 40.1166C305.375 50.4237 313.73 58.7793 324.037 58.7793Z" fill="#EF9E7B"/>
<mask id="mask0_262_1154" style="mask-type:luminance" maskUnits="userSpaceOnUse" x="305" y="21" width="38" height="38">
<path d="M324.036 58.7793C334.343 58.7793 342.699 50.4237 342.699 40.1165C342.699 29.8094 334.343 21.4538 324.036 21.4538C313.729 21.4538 305.374 29.8094 305.374 40.1165C305.374 50.4237 313.729 58.7793 324.036 58.7793Z" fill="white"/>
</mask>
<g mask="url(#mask0_262_1154)">
<path d="M307.454 28.0869C307.454 28.0869 309.974 36.7306 325.054 40.8908L328.451 42.5317C328.451 42.5317 336.136 56.0867 349.252 50.5284C349.252 50.5284 353.99 34.3501 334.565 22.5285C320.443 13.9309 307.443 28.0869 307.443 28.0869H307.454Z" fill="#060E38"/>
</g>
<path d="M307.084 48.0323L306.368 52.516C306.287 53.0591 306.772 53.5098 307.304 53.3827L310.331 52.6662L307.084 48.0323Z" fill="#EF9E7B"/>
<path d="M335.201 40.105C335.051 43.3869 332.277 45.9407 328.984 45.7905C325.702 45.6403 323.148 42.8669 323.298 39.5735C323.449 36.2916 326.222 33.7377 329.515 33.888C332.797 34.0382 335.351 36.8116 335.201 40.105Z" fill="#EF9E7B"/>
<path d="M326.926 41.8847C326.926 41.8847 326.672 38.1406 330.636 37.3085" stroke="#060E38" stroke-width="0.84" stroke-linecap="round" stroke-linejoin="round"/>
<path d="M358.81 21.3961C358.96 28.4683 353.355 34.3271 346.283 34.4889C339.211 34.6391 333.352 29.0345 333.19 21.9623C333.029 14.8901 338.645 9.03128 345.717 8.8695C352.789 8.71927 358.648 14.3239 358.81 21.3961Z" fill="#060E38"/>
<path d="M310.424 44.1149C310.632 44.6927 310.332 45.3167 309.754 45.5247C309.176 45.7327 308.552 45.4323 308.344 44.8545C308.136 44.2767 308.437 43.6526 309.014 43.4446C309.592 43.2366 310.216 43.5371 310.424 44.1149Z" fill="#060E38"/>
<path d="M307.051 40.4979C307.051 40.4979 308.657 39.0649 310.991 40.105" stroke="#060E38" stroke-width="0.84" stroke-linecap="round" stroke-linejoin="round"/>
<path d="M313.383 53.66C313.383 53.66 313.383 52.2502 315.302 52.0884" stroke="#060E38" stroke-width="0.84" stroke-linecap="round" stroke-linejoin="round"/>
<path d="M428.296 349.005L443.434 359.775L452.448 343.551L436.766 332.318L428.296 349.005Z" fill="#EF9E7B"/>
<path d="M438.639 361.185L452.98 341.02L474.381 355.603L447.098 393.957C445.826 395.749 442.995 394.685 443.215 392.501L446.589 367.032L438.639 361.185Z" fill="#060E38"/>
<path d="M442.983 391.843L470.66 352.957" stroke="#FFDABC" stroke-width="1.13" stroke-miterlimit="10"/>
<path d="M444.543 378.715L448.38 377.375" stroke="#FFDABC" stroke-width="1.13" stroke-miterlimit="10"/>
<path d="M445.191 373.723L449.039 372.394" stroke="#FFDABC" stroke-width="1.13" stroke-miterlimit="10"/>
<path d="M381.298 159.939L341.546 166.827C341.546 166.827 306.901 273.938 424.667 357.256C424.667 357.256 437.448 347.595 447.802 328.829C447.802 328.829 357.585 274.551 381.298 159.951" fill="#012442"/>
<path d="M291.163 374.255V392.837H310.276L310.334 373.538L291.163 374.255Z" fill="#EF9E7B"/>
<path d="M287.673 391.103H312.414L312.934 416.988H265.867C263.66 416.988 262.886 414.065 264.804 412.978L287.511 400.96L287.661 391.103H287.673Z" fill="#060E38"/>
<path d="M265.22 412.435H312.945" stroke="#FFDABC" stroke-width="1.13" stroke-miterlimit="10"/>
<path d="M276.811 406.08L280.139 408.437" stroke="#FFDABC" stroke-width="1.13" stroke-miterlimit="10"/>
<path d="M281.259 403.722L284.575 406.08" stroke="#FFDABC" stroke-width="1.13" stroke-miterlimit="10"/>
<path d="M339.627 134.459L341.268 142.663C341.268 142.663 285.707 222.468 282.899 379.166C282.899 379.166 302.243 383.43 318.896 379.166C318.896 379.166 316.677 246.816 371.81 186.425C371.81 186.425 397.683 164.793 382.938 129.617L339.615 134.459H339.627Z" fill="#005482"/>
<path d="M283.188 367.934C283.188 367.934 300.453 370.164 319.012 367.934" stroke="#060E38" stroke-width="0.84" stroke-linecap="round" stroke-linejoin="round"/>
<path d="M341.661 142.606L385.758 138.619" stroke="#060E38" stroke-width="0.84" stroke-linecap="round" stroke-linejoin="round"/>
<path d="M314.609 141.785C295.46 142.271 273.62 128.161 255.743 111.104C250.45 106.066 253.362 103.431 258.412 98.1386C263.451 92.846 271.829 92.6496 277.121 97.6995C290.919 110.862 304.532 116.697 317.602 115.056C341.904 112.006 359.11 84.9187 359.284 84.6414C363.143 78.459 371.302 76.5522 377.496 80.4003C383.69 84.2485 385.608 92.3607 381.783 98.5662C380.824 100.115 357.966 136.539 321.091 141.288C318.93 141.566 316.77 141.739 314.609 141.785Z" fill="#EF9E7B"/>
<mask id="mask1_262_1154" style="mask-type:luminance" maskUnits="userSpaceOnUse" x="252" y="78" width="132" height="64">
<path d="M314.609 141.785C295.46 142.271 273.62 128.161 255.743 111.104C250.45 106.066 253.362 103.431 258.412 98.1387C263.451 92.8461 271.829 92.6497 277.121 97.6996C290.919 110.862 304.532 116.697 317.602 115.057C341.904 112.006 359.11 84.9188 359.284 84.6414C363.143 78.4591 371.302 76.5523 377.496 80.4004C383.69 84.2485 385.608 92.3608 381.783 98.5663C380.824 100.115 357.966 136.539 321.091 141.288C318.93 141.566 316.77 141.739 314.609 141.785Z" fill="white"/>
</mask>
<g mask="url(#mask1_262_1154)">
<path d="M334.681 103.431L333.964 146.616L366.783 135.614L347.323 97.064L334.681 103.431Z" fill="#D67F61"/>
</g>
<path d="M277.571 102.749L277.063 98.52L278.912 99.3636L273.088 87.7037C272.602 86.7446 271.944 85.8548 271.065 85.2423C269.043 83.8094 267.414 84.4449 265.969 84.2832C263.543 84.0174 264.294 84.7454 264.259 87.1837C261.728 87.2299 256.494 88.3624 253.616 77.1647C253.004 74.7727 250.519 73.3051 248.116 73.8944C244.487 74.7958 250.773 73.1202 250.6 74.7611C250.6 74.8304 250.6 74.8998 250.6 74.9691C249.733 74.1602 248.497 73.802 247.272 74.1024C245.758 74.4838 244.707 75.7549 244.556 77.2225C244.533 77.419 244.533 77.6154 244.556 77.8119C243.99 77.6616 243.378 77.627 242.777 77.7888C241.263 78.1701 240.211 79.4413 240.061 80.9088C240.015 81.3133 240.05 81.7409 240.154 82.1684C240.188 82.3187 240.234 82.4573 240.269 82.6076C240.2 82.6191 240.142 82.6191 240.073 82.6307C238.559 83.012 238.489 83.6823 238.328 85.1499C238.281 85.5543 238.316 85.9819 238.42 86.4094C239.206 89.5873 239.992 90.8584 241.182 93.2274C241.182 93.2274 241.205 93.2736 241.24 93.3314C241.806 94.4523 242.407 95.4692 243.054 96.4053C246.717 102.241 255.904 113.681 266.351 116.258C280.252 119.69 277.583 102.749 277.583 102.749H277.571Z" fill="#EF9E7B"/>
<path d="M232.711 68.7521L232.781 70.8437C232.804 71.5024 233.035 72.1264 233.451 72.6348L259.59 103.997C260.33 104.887 261.751 106.043 262.919 106.008L274.382 105.719C275.642 105.685 277.005 104.494 277.583 102.957L243.17 69.8845L232.711 68.7521Z" fill="#03081D"/>
<path d="M233.001 69.5494L261.567 103.073C262.144 103.755 263 104.136 263.889 104.125L276.358 103.974C277.317 103.974 277.837 102.83 277.202 102.102L248.693 68.9369C247.919 68.0356 246.787 67.5271 245.596 67.5387L233.856 67.6774C232.897 67.6774 232.388 68.8098 233.001 69.5494Z" fill="#060E38"/>
<path d="M238.05 70.6934L263.946 101.085C264.362 101.571 264.963 101.848 265.599 101.836L272.694 101.756C273.549 101.756 274 100.739 273.445 100.092L248.126 70.6356C247.433 69.8383 246.428 69.376 245.376 69.3876L238.604 69.4685C237.98 69.4685 237.645 70.208 238.05 70.6934Z" fill="#F7F4ED"/>
<path d="M268.685 84.3178L262.375 83.3587C259.729 82.9542 257.637 85.5774 258.619 88.0735C258.943 88.8708 259.544 89.5295 260.318 89.9108L271.654 95.4577L269.979 88.1544L268.673 84.3294L268.685 84.3178Z" fill="#EF9E7B"/>
<path d="M335.192 77.2571C335.192 77.2571 330.974 72.6232 338.647 64.1296C347.499 54.3187 352.399 57.4388 356.559 59.3455L335.192 77.2571Z" fill="#D80650"/>
<path d="M382.94 129.617C382.94 129.617 371.072 112.687 372.609 99.5021C374.146 86.3169 377.335 63.2629 359.088 57.3578C359.088 57.3578 351.034 57.381 344.008 64.3376C337.964 69.5724 323.519 84.3177 331.216 99.9759C332.163 101.917 333.134 103.431 334.093 104.587C334.786 112.976 336.508 122.833 339.628 134.459L382.951 129.617H382.94Z" fill="#F03C3A"/>
<path d="M362.161 97.5723L372.873 130.738L388.913 128.97L358.336 80.8047L362.161 97.5723Z" fill="#D9004B"/>
<path d="M399.209 191.614C399.278 192.192 399.394 192.746 399.533 193.301L392.899 205.4C392.021 207.006 392.275 208.994 393.523 210.323C395.222 212.137 398.123 212.103 399.775 210.242L401.127 208.717C403.126 210.381 405.553 214.425 400.122 225.218C399.209 227.033 399.937 229.251 401.751 230.164C403.173 230.881 404.837 230.592 405.923 229.564C405.969 229.517 406.015 229.46 406.062 229.402C406.189 230.592 406.905 231.701 408.061 232.291C409.482 233.007 411.146 232.718 412.232 231.69C412.371 231.551 412.51 231.401 412.625 231.239C412.96 231.736 413.411 232.164 413.989 232.452C415.41 233.169 417.074 232.88 418.161 231.852C418.473 231.563 418.727 231.216 418.923 230.823C418.993 230.684 419.05 230.546 419.12 230.407C419.177 230.442 419.224 230.488 419.282 230.511C420.703 231.228 422.367 230.939 423.453 229.91C423.765 229.621 424.019 229.275 424.216 228.882C425.718 225.9 426.793 223.092 427.452 220.469C427.452 220.469 427.452 220.423 427.475 220.353C427.787 219.117 427.995 217.927 428.11 216.771C428.965 211.109 430.017 200.038 426.932 191.29C427.036 190.262 427.036 189.199 426.897 188.124C420.703 139.104 399.521 101.848 384.533 80.8278L362.103 97.5954C375.08 115.946 393.731 148.776 399.151 191.626L399.209 191.614Z" fill="#EF9E7B"/>
<path d="M368.933 61.518C363.513 56.0174 354.673 55.9596 349.149 61.3562C343.637 66.7759 343.568 75.6277 348.987 81.1399C349.137 81.2901 354.719 87.0565 362.161 97.5724L384.591 80.8048C376.132 68.9369 369.638 62.246 368.921 61.518H368.933Z" fill="#F03C3A"/>
<path d="M362.161 97.5724L348.999 81.1515" stroke="#060E38" stroke-width="0.84" stroke-linecap="round" stroke-linejoin="round"/>
<path d="M183.196 13.8963L189.876 16.7275" stroke="#2D2D2D" stroke-width="1.13" stroke-miterlimit="10"/>
<path d="M200.009 3.681V9.53983" stroke="#2D2D2D" stroke-width="1.13" stroke-miterlimit="10"/>
<path d="M186.791 1L192.973 10.4643" stroke="#2D2D2D" stroke-width="1.13" stroke-miterlimit="10"/>
<path d="M268.408 15.7914H198.946C197.472 15.7914 196.276 16.9866 196.276 18.4609V39.8046C196.276 41.2788 197.472 42.474 198.946 42.474H268.408C269.882 42.474 271.078 41.2788 271.078 39.8046V18.4609C271.078 16.9866 269.882 15.7914 268.408 15.7914Z" fill="#EF9E7B"/>
<path d="M226.554 40.0356L233.568 47.9745L240.802 40.0356H226.554Z" fill="#EF9E7B"/>
<path d="M204.135 25.4984H260.4" stroke="#2D2D2D" stroke-width="1.13" stroke-miterlimit="10"/>
<path d="M204.135 31.4959H235.209" stroke="#2D2D2D" stroke-width="1.13" stroke-miterlimit="10"/>
</svg>

<svg xmlns="http://www.w3.org/2000/svg" width="696" height="418" fill="none" xmlns:v="https://vecta.io/nano"><style><![CDATA[.B{fill:#ef9e7b}.C{stroke-miterlimit:10}.D{stroke-width:1.13}.E{fill:#060e38}.F{stroke:#2d2d2d}.G{stroke:#060e38}.H{stroke-width:.84}.I{stroke-linecap:round}.J{stroke-linejoin:round}]]></style><path d="M113.352 273.638H5.223L0 225.947 98.988 89.391h77.748v131.98h27.11v52.267h-27.11v39.856h-63.373v-39.856h-.011zm0-52.267v-67.29l-48.35 67.29h48.35z" fill="#2d2d2d"/><path d="M164.544 417h364.08" class="C D F"/><path d="M604.88 273.638H496.752l-5.224-47.691 98.988-136.556h77.748v131.98h27.11v52.267h-27.11v39.856h-63.373v-39.856h-.011zm0-52.267v-67.29l-48.35 67.29h48.35zm-174.134 62.782c46.536-46.537 46.536-121.987 0-168.524s-121.987-46.536-168.524 0-46.536 121.987 0 168.524 121.987 46.536 168.524 0z" fill="#2d2d2d"/><path d="M478.875 199.888c0 73.137-59.294 132.431-132.431 132.431m123.625-267.23a9.33 9.33 0 0 1-9.776 8.852 9.33 9.33 0 0 1-8.852-9.776 9.33 9.33 0 0 1 9.777-8.852 9.33 9.33 0 0 1 8.851 9.776z" stroke-width="1.17" class="C F"/><path d="M322.305 51.8c.369 1.225 17.877 25.007 17.518 24.395L352.2 61.645l-20.697-16.051-9.198 6.217V51.8z" class="B"/><path d="M334.52 44.693l-2.393 21.066-10.284-14.48 12.677-6.587z" fill="#d67f61"/><path d="M324.037 58.779c10.307 0 18.663-8.356 18.663-18.663s-8.356-18.663-18.663-18.663-18.662 8.356-18.662 18.663 8.355 18.663 18.662 18.663z" class="B"/><mask id="A" maskUnits="userSpaceOnUse" x="305" y="21" width="38" height="38"><path d="M324.036 58.779c10.307 0 18.663-8.356 18.663-18.663s-8.356-18.663-18.663-18.663-18.662 8.356-18.662 18.663 8.355 18.663 18.662 18.663z" fill="#fff"/></mask><g mask="url(#A)" class="E"><path d="M307.454 28.087s2.52 8.644 17.6 12.804l3.397 1.641s7.685 13.555 20.801 7.997c0 0 4.738-16.178-14.687-28-14.122-8.598-27.122 5.558-27.122 5.558h.011z"/></g><path d="M307.084 48.032l-.716 4.484c-.081.543.404.994.936.867l3.027-.716-3.247-4.634zm28.117-7.927c-.15 3.282-2.924 5.836-6.217 5.686-3.282-.15-5.836-2.924-5.686-6.217.151-3.282 2.924-5.836 6.217-5.686 3.282.15 5.836 2.924 5.686 6.217z" class="B"/><path d="M326.926 41.885s-.254-3.744 3.71-4.576" class="G H I J"/><path d="M358.81 21.396c.15 7.072-5.455 12.931-12.527 13.093-7.072.15-12.931-5.454-13.093-12.527A12.82 12.82 0 0 1 345.717 8.87c7.072-.15 12.931 5.454 13.093 12.527zm-48.386 22.719c.208.578-.092 1.202-.67 1.41s-1.202-.092-1.41-.67a1.1 1.1 0 1 1 2.08-.74z" class="E"/><path d="M307.051 40.498s1.606-1.433 3.94-.393m2.392 13.555s0-1.41 1.919-1.572" class="G H I J"/><path d="M428.296 349.005l15.138 10.77 9.014-16.224-15.682-11.233-8.47 16.687z" class="B"/><path d="M438.639 361.185l14.341-20.165 21.401 14.583-27.283 38.354c-1.272 1.792-4.103.728-3.883-1.456l3.374-25.469-7.95-5.847z" class="E"/><g stroke="#ffdabc" class="C D"><path d="M442.983 391.843l27.677-38.886"/><path d="M444.543 378.715l3.837-1.34m-3.189-3.652l3.848-1.329"/></g><path d="M381.298 159.939l-39.752 6.888s-34.645 107.111 83.121 190.429c0 0 12.781-9.661 23.135-28.427 0 0-90.217-54.278-66.504-168.878" fill="#012442"/><path d="M291.163 374.255v18.582h19.113l.058-19.299-19.171.717z" class="B"/><path d="M287.673 391.103h24.741l.52 25.885h-47.067c-2.207 0-2.981-2.923-1.063-4.01l22.707-12.018.15-9.857h.012z" class="E"/><path d="M265.22 412.435h47.725m-36.134-6.355l3.328 2.357m1.12-4.715l3.316 2.358" stroke="#ffdabc" class="C D"/><path d="M339.627 134.459l1.641 8.204s-55.561 79.805-58.369 236.503c0 0 19.344 4.264 35.997 0 0 0-2.219-132.35 52.914-192.741 0 0 25.873-21.632 11.128-56.808l-43.323 4.842h.012z" fill="#005482"/><path d="M283.188 367.934s17.265 2.23 35.824 0m22.649-225.328l44.097-3.987" class="G H I J"/><path d="M314.609 141.785c-19.149.486-40.989-13.624-58.866-30.681-5.293-5.038-2.381-7.673 2.669-12.965 5.039-5.293 13.417-5.489 18.709-.439 13.798 13.162 27.411 18.998 40.481 17.356 24.302-3.05 41.508-30.137 41.682-30.415 3.859-6.182 12.018-8.089 18.212-4.241s8.112 11.96 4.287 18.166c-.959 1.549-23.817 37.973-60.692 42.722-2.161.278-4.321.451-6.482.497z" class="B"/><mask id="B" maskUnits="userSpaceOnUse" x="252" y="78" width="132" height="64"><path d="M314.609 141.785c-19.149.486-40.989-13.624-58.866-30.681-5.293-5.038-2.381-7.673 2.669-12.965 5.039-5.293 13.417-5.489 18.709-.439 13.798 13.162 27.411 18.997 40.481 17.357 24.302-3.051 41.508-30.138 41.682-30.416 3.859-6.182 12.018-8.089 18.212-4.241s8.112 11.96 4.287 18.166c-.959 1.549-23.817 37.973-60.692 42.722-2.161.278-4.321.451-6.482.497z" fill="#fff"/></mask><g mask="url(#B)"><path d="M334.681 103.431l-.717 43.185 32.819-11.002-19.46-38.55-12.642 6.367z" fill="#d67f61"/></g><path d="M277.571 102.749l-.508-4.229 1.849.844-5.824-11.66c-.486-.959-1.144-1.849-2.023-2.461-2.022-1.433-3.651-.797-5.096-.959-2.426-.266-1.675.462-1.71 2.901-2.531.046-7.765 1.179-10.643-10.019-.612-2.392-3.097-3.86-5.5-3.27-3.629.901 2.657-.774 2.484.867v.208c-.867-.809-2.103-1.167-3.328-.867a3.6 3.6 0 0 0-2.716 3.12c-.023.197-.023.393 0 .589-.566-.15-1.178-.185-1.779-.023a3.6 3.6 0 0 0-2.716 3.12c-.046.404-.011.832.093 1.26.034.15.08.289.115.439-.069.011-.127.011-.196.023-1.514.381-1.584 1.052-1.745 2.519-.047.404-.012.832.092 1.26.786 3.178 1.572 4.449 2.762 6.818 0 0 .023.046.058.104a25.96 25.96 0 0 0 1.814 3.074c3.663 5.836 12.85 17.276 23.297 19.853 13.901 3.432 11.232-13.509 11.232-13.509h-.012z" class="B"/><path d="M232.711 68.752l.07 2.092c.023.659.254 1.283.67 1.791l26.139 31.362c.74.89 2.161 2.046 3.329 2.011l11.463-.289c1.26-.034 2.623-1.225 3.201-2.762L243.17 69.885l-10.459-1.132z" fill="#03081d"/><path d="M233.001 69.549l28.566 33.524c.577.682 1.433 1.063 2.322 1.052l12.469-.151c.959 0 1.479-1.144.844-1.872l-28.509-33.165c-.774-.901-1.906-1.41-3.097-1.398l-11.74.139c-.959 0-1.468 1.132-.855 1.872z" class="E"/><path d="M238.05 70.693l25.896 30.392a2.12 2.12 0 0 0 1.653.751l7.095-.08a1.01 1.01 0 0 0 .751-1.664l-25.319-29.456a3.6 3.6 0 0 0-2.75-1.248l-6.772.081c-.624 0-.959.739-.554 1.225z" fill="#f7f4ed"/><path d="M268.685 84.318l-6.31-.959c-2.646-.404-4.738 2.219-3.756 4.715a3.52 3.52 0 0 0 1.699 1.837l11.336 5.547-1.675-7.303-1.306-3.825.012-.012z" class="B"/><path d="M335.192 77.257s-4.218-4.634 3.455-13.127c8.852-9.811 13.752-6.691 17.912-4.784l-21.367 17.912z" fill="#d80650"/><path d="M382.94 129.617s-11.868-16.93-10.331-30.115 4.726-36.239-13.521-42.144c0 0-8.054.023-15.08 6.98-6.044 5.235-20.489 19.98-12.792 35.638.947 1.941 1.918 3.455 2.877 4.611.693 8.389 2.415 18.246 5.535 29.872l43.323-4.842h-.011z" fill="#f03c3a"/><path d="M362.161 97.572l10.712 33.166 16.04-1.768-30.577-48.165 3.825 16.768z" fill="#d9004b"/><path d="M399.209 191.614c.069.578.185 1.132.324 1.687l-6.634 12.099a4.23 4.23 0 0 0 .624 4.923c1.699 1.814 4.6 1.78 6.252-.081l1.352-1.525c1.999 1.664 4.426 5.708-1.005 16.501-.913 1.815-.185 4.033 1.629 4.946a3.67 3.67 0 0 0 4.172-.6c.046-.047.092-.104.139-.162.127 1.19.843 2.299 1.999 2.889a3.67 3.67 0 0 0 4.171-.601 3.6 3.6 0 0 0 .393-.451c.335.497.786.925 1.364 1.213a3.67 3.67 0 0 0 4.172-.6c.312-.289.566-.636.762-1.029.07-.139.127-.277.197-.416.057.035.104.081.162.104 1.421.717 3.085.428 4.171-.601a3.57 3.57 0 0 0 .763-1.028c1.502-2.982 2.577-5.79 3.236-8.413 0 0 0-.046.023-.116.312-1.236.52-2.426.635-3.582.855-5.662 1.907-16.733-1.178-25.481.104-1.028.104-2.091-.035-3.166-6.194-49.02-27.376-86.276-42.364-107.296l-22.43 16.768c12.977 18.351 31.628 51.181 37.048 94.031l.058-.012z" class="B"/><path d="M368.933 61.518c-5.42-5.501-14.26-5.558-19.784-.162a13.99 13.99 0 0 0-.162 19.784c.15.15 5.732 5.917 13.174 16.433l22.43-16.768c-8.459-11.868-14.953-18.559-15.67-19.287h.012z" fill="#f03c3a"/><path d="M362.161 97.572l-13.162-16.421" class="G H I J"/><path d="M183.196 13.896l6.68 2.831m10.133-13.046V9.54M186.791 1l6.182 9.464" class="C D F"/><g class="B"><path d="M268.408 15.791h-69.462a2.67 2.67 0 0 0-2.67 2.669v21.344a2.67 2.67 0 0 0 2.67 2.669h69.462a2.67 2.67 0 0 0 2.67-2.669V18.461a2.67 2.67 0 0 0-2.67-2.669z"/><path d="M226.554 40.036l7.014 7.939 7.234-7.939h-14.248z"/></g><path d="M204.135 25.498H260.4m-56.265 5.998h31.074" class="C D F"/></svg>
